symbols/web/local_convenience_store/materialsymbolsrounded/local_convenience_store_wght700grad200fill1_48px.svg

<svg xmlns="http://www.w3.org/2000/svg" height="48" width="48"><path d="M17.1 36.85h3.8q.3 0 .6-.3t.3-.6q0-.3-.325-.625T20.9 35h-3.1v-2.35h2.85q.4 0 .775-.375t.375-.775V28q0-.45-.375-.825-.375-.375-.775-.375h-3.7q-.45 0-.725.275-.275.275-.275.675 0 .25.3.575.3.325.65.325h3.05v2.15H17.1q-.45 0-.8.375-.35.375-.35.825v3.7q0 .4.35.775t.8.375Zm14.05 0q.3 0 .625-.35t.325-.55v-8.2q0-.35-.3-.65-.3-.3-.65-.3-.3 0-.6.325t-.3.625v3.05H28.1v-3.05q0-.35-.3-.65-.3-.3-.6-.3-.35 0-.65.325-.3.325-.3.625v3.75q0 .4.35.775t.8.375h2.85v3.3q0 .2.275.55.275.35.625.35Zm12.2-14.65v16.85q0 1.85-1.375 3.2T38.75 43.6H9.25q-1.9 0-3.225-1.35Q4.7 40.9 4.7 39.05V22.4q-1.5-1.55-1.8-3.45-.3-1.9.25-3.65l2.1-6.75Q5.85 6.8 7.1 5.8t3.05-1h27.5q1.75 0 3.125 1.05t1.975 2.7l2.15 6.75q.55 1.7.125 3.55-.425 1.85-1.675 3.35ZM28.5 20.1q1.2 0 2.125-.8t.775-2l-1.2-7.9h-4.3v7.85q0 1.15.725 2 .725.85 1.875.85Zm-9.25 0q1.1 0 2-.825.9-.825.9-2.025V9.4H17.9l-1.2 7.9q-.2 1.1.5 1.95.7.85 2.05.85Zm-9.15 0q1 0 1.8-.75t.9-1.8l1.3-8.15H9.8l-2.2 7q-.45 1.45.3 2.575.75 1.125 2.2 1.125Zm27.8 0q1.4 0 2.2-1.1.8-1.1.35-2.6l-2.2-7h-4.2l1.2 8.15q.05 1.05.8 1.8t1.85.75Z"/></svg>

<svg xmlns="http://www.w3.org/2000/svg" height="48" width="48"><path d="M17.1 36.85H20.9Q21.2 36.85 21.5 36.55Q21.8 36.25 21.8 35.95Q21.8 35.65 21.475 35.325Q21.15 35 20.9 35H17.8V32.65H20.65Q21.05 32.65 21.425 32.275Q21.8 31.9 21.8 31.5V28Q21.8 27.55 21.425 27.175Q21.05 26.8 20.65 26.8H16.95Q16.5 26.8 16.225 27.075Q15.95 27.35 15.95 27.75Q15.95 28 16.25 28.325Q16.55 28.65 16.9 28.65H19.95V30.8H17.1Q16.65 30.8 16.3 31.175Q15.95 31.55 15.95 32V35.7Q15.95 36.1 16.3 36.475Q16.65 36.85 17.1 36.85ZM31.15 36.85Q31.45 36.85 31.775 36.5Q32.1 36.15 32.1 35.95V27.75Q32.1 27.4 31.8 27.1Q31.5 26.8 31.15 26.8Q30.85 26.8 30.55 27.125Q30.25 27.45 30.25 27.75V30.8H28.1V27.75Q28.1 27.4 27.8 27.1Q27.5 26.8 27.2 26.8Q26.85 26.8 26.55 27.125Q26.25 27.45 26.25 27.75V31.5Q26.25 31.9 26.6 32.275Q26.95 32.65 27.4 32.65H30.25V35.95Q30.25 36.15 30.525 36.5Q30.8 36.85 31.15 36.85ZM43.35 22.2V39.05Q43.35 40.9 41.975 42.25Q40.6 43.6 38.75 43.6H9.25Q7.35 43.6 6.025 42.25Q4.7 40.9 4.7 39.05V22.4Q3.2 20.85 2.9 18.95Q2.6 17.05 3.15 15.3L5.25 8.55Q5.85 6.8 7.1 5.8Q8.35 4.8 10.15 4.8H37.65Q39.4 4.8 40.775 5.85Q42.15 6.9 42.75 8.55L44.9 15.3Q45.45 17 45.025 18.85Q44.6 20.7 43.35 22.2ZM28.5 20.1Q29.7 20.1 30.625 19.3Q31.55 18.5 31.4 17.3L30.2 9.4H25.9V17.25Q25.9 18.4 26.625 19.25Q27.35 20.1 28.5 20.1ZM19.25 20.1Q20.35 20.1 21.25 19.275Q22.15 18.45 22.15 17.25V9.4H17.9L16.7 17.3Q16.5 18.4 17.2 19.25Q17.9 20.1 19.25 20.1ZM10.1 20.1Q11.1 20.1 11.9 19.35Q12.7 18.6 12.8 17.55L14.1 9.4H9.8Q9.8 9.4 9.8 9.4Q9.8 9.4 9.8 9.4L7.6 16.4Q7.15 17.85 7.9 18.975Q8.65 20.1 10.1 20.1ZM37.9 20.1Q39.3 20.1 40.1 19Q40.9 17.9 40.45 16.4L38.25 9.4Q38.25 9.4 38.25 9.4Q38.25 9.4 38.25 9.4H34.05L35.25 17.55Q35.3 18.6 36.05 19.35Q36.8 20.1 37.9 20.1Z"/></svg>
